resources/haticons/SVG/filter_9.svg

<!-- Generated by IcoMoon.io -->
<svg version="1.1" xmlns="http://www.w3.org/2000/svg" width="24" height="24" viewBox="0 0 24 24">
<title>filter_9</title>
<path d="M15 9v-2.016h-2.016v2.016h2.016zM15 5.016q0.844 0 1.43 0.563t0.586 1.406v6q0 0.844-0.586 1.43t-1.43 0.586h-3.984v-2.016h3.984v-1.969h-2.016q-0.844 0-1.406-0.586t-0.563-1.43v-2.016q0-0.844 0.563-1.406t1.406-0.563h2.016zM21 17.016v-14.016h-14.016v14.016h14.016zM21 0.984q0.797 0 1.406 0.609t0.609 1.406v14.016q0 0.797-0.609 1.383t-1.406 0.586h-14.016q-0.797 0-1.383-0.586t-0.586-1.383v-14.016q0-0.797 0.586-1.406t1.383-0.609h14.016zM3 5.016v15.984h15.984v2.016h-15.984q-0.797 0-1.406-0.609t-0.609-1.406v-15.984h2.016z"></path>
</svg>

<svg xmlns="http://www.w3.org/2000/svg" width="24" height="24"><path d="M15 9V6.984h-2.016V9H15zm0-3.984q.844 0 1.43.563t.586 1.406v6q0 .844-.586 1.43t-1.43.586h-3.984v-2.016H15v-1.969h-2.016q-.844 0-1.406-.586T11.015 9V6.984q0-.844.563-1.406t1.406-.563H15zm6 12V3H6.984v14.016H21zM21 .984q.797 0 1.406.609t.609 1.406v14.016q0 .797-.609 1.383T21 18.984H6.984q-.797 0-1.383-.586t-.586-1.383V2.999q0-.797.586-1.406T6.984.984H21zM3 5.016V21h15.984v2.016H3q-.797 0-1.406-.609t-.609-1.406V5.017h2.016z"/></svg>
